src/resources/assets/chevron-left.svg

<svg xmlns="http://www.w3.org/2000/svg" width="16" height="16"><path d="M 10.355469 3.144531 C 10.546875 3.339844 10.546875 3.660156 10.355469 3.855469 L 6.207031 8 L 10.355469 12.144531 C 10.546875 12.339844 10.546875 12.660156 10.355469 12.855469 C 10.160156 13.046875 9.839844 13.046875 9.644531 12.855469 L 5.144531 8.355469 C 4.953125 8.160156 4.953125 7.839844 5.144531 7.644531 L 9.644531 3.144531 C 9.839844 2.953125 10.160156 2.953125 10.355469 3.144531 Z M 10.355469 3.144531" fill="#ddd"/></svg>

<svg xmlns="http://www.w3.org/2000/svg" width="16" height="16"><path d="M10.355 3.145a.512.512 0 010 .71L6.207 8l4.148 4.145a.512.512 0 010 .71.512.512 0 01-.71 0l-4.5-4.5a.512.512 0 010-.71l4.5-4.5a.512.512 0 01.71 0zm0 0" fill="#ddd"/></svg>
